resources/svg/wallet-line.svg

<svg fill="currentColor" viewBox="0 0 24 24" xmlns="http://www.w3.org/2000/svg"><path d="M18.0049 7H21.0049C21.5572 7 22.0049 7.44772 22.0049 8V20C22.0049 20.5523 21.5572 21 21.0049 21H3.00488C2.4526 21 2.00488 20.5523 2.00488 20V4C2.00488 3.44772 2.4526 3 3.00488 3H18.0049V7ZM4.00488 9V19H20.0049V9H4.00488ZM4.00488 5V7H16.0049V5H4.00488ZM15.0049 13H18.0049V15H15.0049V13Z"/></svg>

<svg xmlns="http://www.w3.org/2000/svg" viewBox="0 0 24 24" fill="currentColor">
    <g>
        <path fill="none" d="M0 0h24v24H0z"/>
        <path d="M18 7h3a1 1 0 0 1 1 1v12a1 1 0 0 1-1 1H3a1 1 0 0 1-1-1V4a1 1 0 0 1 1-1h15v4zM4 9v10h16V9H4zm0-4v2h12V5H4zm11 8h3v2h-3v-2z"/>
    </g>
</svg>
